src/assets/HeaderLogo.svg

<svg width="175" height="33" viewBox="0 0 175 33" fill="none" xmlns="http://www.w3.org/2000/svg">
<path d="M55.0346 23.4818C50.0637 23.4818 46.7964 20.8943 46.7964 16.173C46.7964 11.4517 50.0649 8.86423 55.0346 8.86423C58.1443 8.86423 60.4822 9.90825 61.8441 12.0193L62.9561 11.4517C61.4582 9.15937 58.8024 7.75195 55.0573 7.75195C49.1105 7.75195 45.5923 11.067 45.5923 16.173C45.5923 21.279 49.1105 24.5941 55.0118 24.5941C58.8024 24.5941 61.4582 23.1866 62.9561 20.8943L61.8441 20.3267C60.504 22.4385 58.1443 23.4818 55.0346 23.4818ZM68.1249 23.0051V16.5814H79.7463V15.4694H68.1237V9.31819H81.6745V8.22968H66.9446V24.1183H81.9036V23.0051H68.1249ZM87.343 23.0051V8.22868H86.1627V24.1173H99.8951V23.0041L87.343 23.0051ZM104.5 23.0051V16.5814H116.121V15.4694H104.5V9.31819H118.05V8.22968H103.319V24.1183H118.277V23.0051H104.5ZM129.917 15.4011C125.945 15.0379 122.631 14.4479 122.631 12.2461C122.631 9.90825 126.285 8.84147 129.349 8.86423C132.164 8.88699 134.569 9.61311 136.159 11.3157L137.089 10.5438C135.432 8.86425 132.754 7.75195 129.304 7.75195C125.218 7.75195 121.405 9.36346 121.405 12.2689C121.405 15.2651 125.4 16.1282 129.508 16.5134C134.071 16.9446 136.726 17.5574 136.726 19.7592C136.726 21.9155 134.297 23.4818 129.917 23.4818C126.535 23.4818 123.652 22.5058 121.7 20.3495L120.837 21.1892C122.903 23.4362 126.194 24.5941 129.871 24.5941C135.069 24.5941 137.929 22.4603 137.929 19.6912C137.929 16.7178 134.661 15.8098 129.917 15.4011ZM155.969 8.22868H139.286V9.29545H147.026V24.1173H148.205V9.29545H155.968L155.969 8.22868ZM160.558 23.0051V16.5814H172.179V15.4694H160.558V9.31819H174.107V8.22968H159.377V24.1183H174.335V23.0051H160.558Z" fill="#432D89"/>
<path d="M17.232 20.1501C27.916 20.1501 33.5617 17.3533 34.0013 17.1248C34.0158 17.1161 34.0216 17.1016 34.0274 17.0872C34.0447 16.7864 34.0563 16.4827 34.0563 16.1761C34.0563 15.8695 34.0447 15.5658 34.0274 15.2651C34.0245 15.2506 34.0187 15.2332 34.0013 15.2275C33.5617 14.999 27.916 12.2021 17.232 12.2021C6.54799 12.2021 0.902292 14.9961 0.462668 15.2246C0.448207 15.2332 0.442422 15.2477 0.436637 15.2622C0.419284 15.5658 0.407715 15.8666 0.407715 16.1732C0.407715 16.4798 0.419284 16.7835 0.436637 17.0843C0.43953 17.0987 0.445314 17.1161 0.462668 17.1219C0.902292 17.3504 6.54799 20.1501 17.232 20.1501Z" fill="url(#paint0_radial)"/>
<path d="M17.2319 5.52344C10.5074 5.52344 5.78434 6.63117 3.09743 7.50753C1.97523 9.15612 1.1625 11.013 0.740234 13.0057C0.751803 13.0144 0.769157 13.0173 0.783618 13.0115C2.15744 12.3752 7.67588 10.1395 17.2319 10.1395C26.7879 10.1395 32.3064 12.3752 33.6802 13.0115C33.6947 13.0173 33.712 13.0144 33.7236 13.0057C33.3013 11.013 32.4886 9.15901 31.3664 7.50753C28.6766 6.63117 23.9564 5.52344 17.2319 5.52344Z" fill="url(#paint1_radial)"/>
<path d="M5.28711 27.4385C8.33555 30.3626 12.5611 32.1731 17.2322 32.1731C21.9032 32.1731 26.1288 30.3626 29.1772 27.4385C26.3891 28.1413 22.4064 28.7949 17.2322 28.7949C12.0579 28.7949 8.07525 28.1413 5.28711 27.4385Z" fill="url(#paint2_radial)"/>
<path d="M5.28711 4.90723C8.33555 1.98315 12.5611 0.172592 17.2322 0.172592C21.9032 0.172591 26.1288 1.98315 29.1772 4.90722C26.3891 4.20441 22.4064 3.55075 17.2322 3.55075C12.0579 3.55075 8.07525 4.20441 5.28711 4.90723Z" fill="url(#paint3_radial)"/>
<path d="M17.2319 26.7792C10.5074 26.7792 5.78434 25.6714 3.09743 24.7951C1.97523 23.1465 1.1625 21.2896 0.740234 19.2969C0.751803 19.2882 0.769157 19.2853 0.783618 19.2911C2.15744 19.9274 7.67588 22.1631 17.2319 22.1631C26.7879 22.1631 32.3064 19.9274 33.6802 19.2911C33.6947 19.2853 33.712 19.2882 33.7236 19.2969C33.3013 21.2896 32.4886 23.1436 31.3664 24.7951C28.6766 25.6743 23.9564 26.7792 17.2319 26.7792Z" fill="url(#paint4_radial)"/>
<defs>
<radialGradient id="paint0_radial" cx="0" cy="0" r="1" gradientUnits="userSpaceOnUse" gradientTransform="translate(-9.13675 12.3207) rotate(11.0664) scale(46.7109)">
<stop stop-color="#FEAE6F"/>
<stop offset="0.3156" stop-color="#FF9B73"/>
<stop offset="0.6313" stop-color="#D66F8D"/>
<stop offset="0.8553" stop-color="#8E54A5"/>
<stop offset="0.9909" stop-color="#6050B0"/>
</radialGradient>
<radialGradient id="paint1_radial" cx="0" cy="0" r="1" gradientUnits="userSpaceOnUse" gradientTransform="translate(3.15527 10.7295) rotate(9.14384) scale(42.7705 25.8655)">
<stop offset="0.0206505" stop-color="#FEAE6F"/>
<stop offset="0.496525" stop-color="#D66F8D"/>
<stop offset="0.795468" stop-color="#8E54A5"/>
<stop offset="0.983598" stop-color="#7652AB"/>
</radialGradient>
<radialGradient id="paint2_radial" cx="0" cy="0" r="1" gradientUnits="userSpaceOnUse" gradientTransform="translate(11.2166 19.8328) scale(20.0101)">
<stop offset="0.0711" stop-color="#FF9B73"/>
<stop offset="0.2613" stop-color="#F4A575"/>
<stop offset="0.3683" stop-color="#EE977B"/>
<stop offset="0.5696" stop-color="#DF7389"/>
<stop offset="0.6072" stop-color="#DC6B8C"/>
<stop offset="0.6119" stop-color="#DA6B8D"/>
<stop offset="0.731" stop-color="#B06099"/>
<stop offset="0.8388" stop-color="#9259A2"/>
<stop offset="0.9307" stop-color="#8055A7"/>
<stop offset="0.9957" stop-color="#7953A9"/>
</radialGradient>
<radialGradient id="paint3_radial" cx="0" cy="0" r="1" gradientUnits="userSpaceOnUse" gradientTransform="translate(6.1924 11.0186) rotate(1.32452) scale(25.0248)">
<stop offset="0.109375" stop-color="#FEAE6F"/>
<stop offset="0.390625" stop-color="#FEAE6F"/>
<stop offset="0.640625" stop-color="#DF7389"/>
<stop offset="0.907479" stop-color="#B56398"/>
<stop offset="0.9957" stop-color="#7852AA"/>
</radialGradient>
<radialGradient id="paint4_radial" cx="0" cy="0" r="1" gradientUnits="userSpaceOnUse" gradientTransform="translate(-17.5244 19.2622) rotate(4.71153) scale(52.8177)">
<stop offset="0.0711" stop-color="#FF9B73"/>
<stop offset="0.390457" stop-color="#F4A575"/>
<stop offset="0.5892" stop-color="#DF7389"/>
<stop offset="0.64526" stop-color="#DC6B8C"/>
<stop offset="0.915" stop-color="#7953A9"/>
</radialGradient>
</defs>
</svg>

<svg width="175" height="33" fill="none" xmlns="http://www.w3.org/2000/svg"><path d="M55.035 23.482c-4.971 0-8.239-2.588-8.239-7.309s3.269-7.309 8.239-7.309c3.11 0 5.447 1.044 6.81 3.155l1.111-.567c-1.498-2.293-4.154-3.7-7.899-3.7-5.947 0-9.465 3.315-9.465 8.421s3.519 8.421 9.42 8.421c3.79 0 6.446-1.407 7.944-3.7l-1.112-.567c-1.34 2.111-3.7 3.155-6.81 3.155zm13.09-.477v-6.424h11.621V15.47H68.124V9.32h13.55v-1.09h-14.73v15.89h14.96v-1.114h-13.78zm19.218 0V8.23h-1.18v15.888h13.732v-1.113l-12.552.001zm17.157 0v-6.424h11.621V15.47H104.5V9.32h13.55v-1.09h-14.731v15.89h14.958v-1.114H104.5zm25.417-7.604c-3.972-.363-7.286-.953-7.286-3.155 0-2.338 3.654-3.405 6.718-3.382 2.815.023 5.22.75 6.81 2.452l.93-.772c-1.657-1.68-4.335-2.792-7.785-2.792-4.086 0-7.899 1.611-7.899 4.517 0 2.996 3.995 3.86 8.103 4.244 4.563.432 7.218 1.044 7.218 3.246 0 2.157-2.429 3.723-6.809 3.723-3.382 0-6.265-.976-8.217-3.133l-.863.84c2.066 2.247 5.357 3.405 9.034 3.405 5.198 0 8.058-2.134 8.058-4.903 0-2.973-3.268-3.881-8.012-4.29zm26.052-7.172h-16.683v1.066h7.74v14.822h1.179V9.295h7.763l.001-1.066zm4.589 14.776v-6.424h11.621V15.47h-11.621V9.32h13.549v-1.09h-14.73v15.89h14.958v-1.114h-13.777z" fill="#432D89"/><path d="M17.232 20.15c10.684 0 16.33-2.797 16.77-3.025.014-.009.02-.023.025-.038.018-.3.03-.604.03-.91 0-.307-.012-.611-.03-.912-.002-.014-.008-.032-.026-.038-.44-.228-6.085-3.025-16.769-3.025-10.684 0-16.33 2.794-16.77 3.023-.014.008-.02.023-.025.037-.018.304-.03.605-.03.911 0 .307.012.61.03.911.003.015.008.032.026.038.44.228 6.085 3.028 16.769 3.028z" fill="url(#paint0_radial)"/><path d="M17.232 5.523c-6.725 0-11.448 1.108-14.135 1.985A15.46 15.46 0 00.74 13.006a.046.046 0 00.044.005c1.373-.636 6.892-2.871 16.448-2.871 9.556 0 15.074 2.235 16.448 2.871a.046.046 0 00.044-.005 15.483 15.483 0 00-2.358-5.498c-2.69-.877-7.41-1.985-14.134-1.985z" fill="url(#paint1_radial)"/><path d="M5.287 27.439c3.049 2.924 7.274 4.734 11.945 4.734s8.897-1.81 11.945-4.735c-2.788.703-6.77 1.357-11.945 1.357-5.174 0-9.157-.654-11.945-1.357z" fill="url(#paint2_radial)"/><path d="M5.287 4.907C8.336 1.983 12.561.173 17.232.173s8.897 1.81 11.945 4.734c-2.788-.703-6.77-1.356-11.945-1.356-5.174 0-9.157.653-11.945 1.356z" fill="url(#paint3_radial)"/><path d="M17.232 26.78c-6.725 0-11.448-1.109-14.135-1.985A15.46 15.46 0 01.74 19.297a.046.046 0 01.044-.006c1.373.636 6.892 2.872 16.448 2.872 9.556 0 15.074-2.236 16.448-2.872a.046.046 0 01.044.006 15.484 15.484 0 01-2.358 5.498c-2.69.88-7.41 1.984-14.134 1.984z" fill="url(#paint4_radial)"/><defs><radialGradient id="paint0_radial" cx="0" cy="0" r="1" gradientUnits="userSpaceOnUse" gradientTransform="rotate(11.066 -68.16 -40.998) scale(46.7109)"><stop stop-color="#FEAE6F"/><stop offset=".316" stop-color="#FF9B73"/><stop offset=".631" stop-color="#D66F8D"/><stop offset=".855" stop-color="#8E54A5"/><stop offset=".991" stop-color="#6050B0"/></radialGradient><radialGradient id="paint1_radial" cx="0" cy="0" r="1" gradientUnits="userSpaceOnUse" gradientTransform="rotate(9.144 -65.511 25.094) scale(42.7705 25.8655)"><stop offset=".021" stop-color="#FEAE6F"/><stop offset=".497" stop-color="#D66F8D"/><stop offset=".795" stop-color="#8E54A5"/><stop offset=".984" stop-color="#7652AB"/></radialGradient><radialGradient id="paint2_radial" cx="0" cy="0" r="1" gradientUnits="userSpaceOnUse" gradientTransform="translate(11.217 19.833) scale(20.0101)"><stop offset=".071" stop-color="#FF9B73"/><stop offset=".261" stop-color="#F4A575"/><stop offset=".368" stop-color="#EE977B"/><stop offset=".57" stop-color="#DF7389"/><stop offset=".607" stop-color="#DC6B8C"/><stop offset=".612" stop-color="#DA6B8D"/><stop offset=".731" stop-color="#B06099"/><stop offset=".839" stop-color="#9259A2"/><stop offset=".931" stop-color="#8055A7"/><stop offset=".996" stop-color="#7953A9"/></radialGradient><radialGradient id="paint3_radial" cx="0" cy="0" r="1" gradientUnits="userSpaceOnUse" gradientTransform="rotate(1.325 -473.523 273.367) scale(25.0248)"><stop offset=".109" stop-color="#FEAE6F"/><stop offset=".391" stop-color="#FEAE6F"/><stop offset=".641" stop-color="#DF7389"/><stop offset=".907" stop-color="#B56398"/><stop offset=".996" stop-color="#7852AA"/></radialGradient><radialGradient id="paint4_radial" cx="0" cy="0" r="1" gradientUnits="userSpaceOnUse" gradientTransform="rotate(4.712 -242.873 -203.359) scale(52.8177)"><stop offset=".071" stop-color="#FF9B73"/><stop offset=".39" stop-color="#F4A575"/><stop offset=".589" stop-color="#DF7389"/><stop offset=".645" stop-color="#DC6B8C"/><stop offset=".915" stop-color="#7953A9"/></radialGradient></defs></svg>
